X: 226
T: Shady Groves
B: O'Neill's 226
N: "Moderate"
N: "Collected by J.O'Neill"
Z: 1997 by John Chambers <jc@trillian.mit.edu>
N: The first section ends with a fermata over the double bar.
N: The second section has 10 bars.
M: C
L: 1/8
K:G
G>A \
| (Bd)AB GFED | E2A2 A2(GA) | (Bd)AB (GF)ED | E2G2 G2 || AB \
| cBcd He2 Bc | dBAG HA2 (FG) |
| (Ad)^cB (AG)FE | F2D2 D2(Fd) | dcBA ^G2ed | c2A2 A2(AB) |
| (cB)AG F2(dc) | B2G2 G2AB | cBcd He2 Bc | dBAG "D.C."A2 ||


